!!!!SEGMENT: pl-kk--kk-i-382--028-004_fuhrer-robert--msza-na-4ry-glosy-sanctus.krn
!!!cenid: 18xx:1513
!!!COM: Führer, Robert
!!!COM-rismid: pe30001170
!!!CDT: 1807/06/02-1861/11/28
!!!CNT: Czech
!!!OPR: Msza na 4ry głosy
!!!OTL: Sanctus
!!!OMV: 004
!!!PDT:
!!!AGN: Sacred; Mass
!!!SMS-siglum: PL-Kk
!!!SMS-shelfmark: Kk.I.382
!!!SMS-shelfwork: 013-004 M
!!!SMS-variant:
!!!SMS-altvar:
!!!NIFC-rismid: 1001139162
!!!URL-scan: http://repozytorium.nifc.pl/skany/pl-kk-nut--i-382
!!!ONB-nifc: UWAGA: obsada: S (T 1), T 2, B 1, B 2. Osobne części Mszy: Kyrie, Gloria, Credo, Sanctus, Benedictus, Agnus Dei. S (T 1): skan 0029; T 2: skan 0177; B 1: skan 0101; B 2: skan 0249
**kern	**text	**kern	**text	**dynam	**kern	**text	**dynam	**kern	**text	**dynam
*part4	*part4	*part3	*part3	*part3	*part2	*part2	*part2	*part1	*part1	*part1
*staff4	*staff4	*staff3	*staff3	*	*staff2	*staff2	*	*staff1	*staff1	*
*Iempty	*	*Iempty	*	*	*Itenor	*	*	*Itenor	*	*
*I"Bas IIgi	*	*I"Bas I	*	*	*I"Tenor IIgi	*	*	*I"Soprano vel Tenore I.	*	*
*I'B 2	*	*I'B 1	*	*	*I'T 2	*	*	*I'S (T 1)	*	*
*clefF4	*	*clefF4	*	*	*clefG2	*	*	*clefG2	*	*
*k[]	*	*k[]	*	*	*k[]	*	*	*k[]	*	*
*C:	*	*C:	*	*	*C:	*	*	*C:	*	*
*M4/4	*	*M4/4	*	*	*M4/4	*	*	*M4/4	*	*
*met(c)	*	*met(c)	*	*	*met(c)	*	*	*met(c)	*	*
=1	=1	=1	=1	=1	=1	=1	=1	=1	=1	=1
!LO:TX:a:i:t=Moderato	!	!LO:TX:a:t=P:problem:napis "Moderato" na pięciolinii przed kluczem	!	!	!LO:TX:a:i:t=Moderato	!	!	!LO:TX:a:i:t=Moderato	!	!
!LO:TX:a:i:t=Sanctus	!	!LO:TX:a:i:t=Moderato	!	!	!LO:TX:a:t=P:problem:napis "Moderato" na pięciolinii przed kluczem	!	!	!LO:TX:a:t=P:problem:napis "Moderato" przed kluczem	!	!
!LO:TX:a:t=P:problem:napis "Moderato" oraz "Sanctus" na pięciolinii przed kluczem	!	!	!	!	!	!	!	!	!	!
2C/	San-	2G\	San-	.	2cc\	San-	.	2ee^>\	San-	.
2GG/	-ctus,	2G\	-ctus,	.	2b\	-ctus	.	2dd\	-ctus,	.
=2	=2	=2	=2	=2	=2	=2	=2	=2	=2	=2
2C/	San-	2G\	san-	.	2cc\	San-	.	2ee\	san-	.
2E\	-ctus	2G\	-ctus,	.	2cc\	-ctus	.	2gg\	-ctus	.
=3	=3	=3	=3	=3	=3	=3	=3	=3	=3	=3
(<2AA/	san-	(>2E\	ſan-	.	(>2cc\	san-	.	(>2cc\	san-	.
2GG/)	[[-ctus]]-	2G\)	.	.	2b\)	[[-ctus]]-	.	2dd\)	.	.
=4	=4	=4	=4	=4	=4	=4	=4	=4	=4	=4
1C;>	-ctus.	1G;>	-ctus.	.	1cc;>	-ctus.	.	1ee;>	-ctus.	.
!LO:LB:g=original	!	!	!	!	!	!	!	!	!	!
=5	=5	=5	=5	=5	=5	=5	=5	=5	=5	=5
2AA/	Do-	2A\	Do-	.	2cc#X\	Do-	.	2ee\	Do-	.
4AA/	-mi-	4A\	-mi-	.	4cc#\	-mi-	.	4ee\	-mi-	.
4AA/	-nus	4A\	-nus	.	4cc#\	-nus	.	4ee\	-nus	.
!	!	!LO:LB:g=original	!	!	!LO:LB:g=original	!	!	!LO:LB:g=original	!	!
=6	=6	=6	=6	=6	=6	=6	=6	=6	=6	=6
2D\	De-	2A\	De-	.	2dd\	De-	.	2ff\	De-	.
2F\	-us	2A\	-us	.	2dd\	-us	.	2dd\	-us	.
=7	=7	=7	=7	=7	=7	=7	=7	=7	=7	=7
2E\	sa-	2G#X\	sa-	.	2b\	Sa-	.	2.ee\	sa-	.
2E\	-ba-	2A\	-ba-	.	2cc\	-ba-	.	.	.	.
.	.	.	.	.	.	.	.	4dd#X\	-ba-	.
=8	=8	=8	=8	=8	=8	=8	=8	=8	=8	=8
1E	-oth!	1G#X	-oth!	.	1b	-oth!	.	1ee	-oth,	.
=9	=9	=9	=9	=9	=9	=9	=9	=9	=9	=9
2AA/	ple-	(>4A\	ple-	.	2a/	ple-	.	2cc\	ple-	.
.	.	4E\)	.	.	.	.	.	.	.	.
4AA/	-ni	4E\	-ni	.	4a/	-ni	.	4cc\	-ni	.
4GGn/	sunt	4Gn\	sunt	.	4b/	sunt	.	4dd\	sunt	.
=10	=10	=10	=10	=10	=10	=10	=10	=10	=10	=10
2C/	coe-	2G\	coe-	.	2cc\	coe-	.	2ee\	coe-	.
4C/	-li	4E\	-li	.	4g/	-li	.	4cc\	-li	.
4C/	et	4E\	et	.	4g#X/	et	.	4cc\	et	.
!LO:PB:g=original	!	!	!	!	!	!	!	!	!	!
=11	=11	=11	=11	=11	=11	=11	=11	=11	=11	=11
(>2F\	ter-	(>2F\	ter-	.	(<2a/	ter-	.	1cc	ter-	.
2E\)	.	2G\)	.	.	2b-X/)	.	.	.	.	.
!	!	!LO:LB:g=original	!	!	!LO:LB:g=original	!	!	!LO:PB:g=original	!	!
=12	=12	=12	=12	=12	=12	=12	=12	=12	=12	=12
!	!	!LO:TX:t=P:problem:półnuta przerobiona na całą nutę przez skreślenie caudy	!	!	!	!	!	!	!	!
1F	-ra	1F	-ra,	.	1a	-ra	.	1cc	-ra	.
=13	=13	=13	=13	=13	=13	=13	=13	=13	=13	=13
!	!	!LO:TX:a:t=P:problem:oznaczenie dynamiczne na pięciolinii przed nutą	!	!LO:DY:a:rj	!LO:TX:a:t=P:problem:oznaczenie dynamiczne na pięciolinii przed nutą	!	!LO:DY:a:rj	!LO:TX:a:t=P:problem:oznaczenie dynamiczne na pięciolinii przed nutą	!	!LO:DY:a:rj
(>2D\	glo-	(>2A\	glo-	f	2a/	glo-	f	(>2ff\	glo-	f
2F\)	.	2G\)	.	.	2bn/	.	.	2dd\	.	.
=14	=14	=14	=14	=14	=14	=14	=14	=14	=14	=14
!	!	!LO:TX:t=P:problem:nuty 1-2 wpisane na naklejce sklejającej rozdartą kartę	!	!	!	!	!	!	!	!
2E\	.	2G\	.	.	2cc\	.	.	2gg\)	.	.
4AA/	-ri-	4E\	-ri-	.	4cc\	-ri-	.	4cc\	-ri-	.
4AA/	-a	4F#X\	-a	.	4cc\	-a	.	4dd\	-a	.
=15	=15	=15	=15	=15	=15	=15	=15	=15	=15	=15
!	!	!	!	!	!	!	!	!	!	!LO:HP:a
1GG	tu-	(>2.G\	Tu-	.	(>2cc\	tu-	.	2.ee\	tu-	>
.	.	.	.	.	2b\)	.	.	.	.	]
.	.	4Fn\)	.	.	.	.	.	4dd\	.	.
=16	=16	=16	=16	=16	=16	=16	=16	=16	=16	=16
2C/	-a,	2E\	-a,	.	2cc\	-a	.	2cc\	-a	.
!	!	!	!	!LO:DY:b:t=p.	!	!	!	!	!	!
4r	.	4r	.	p	4r	.	.	4r	.	.
!	!	!	!	!	!	!	!	!	!	!LO:DY:a:rj
4C/	o-	4E\	o-	.	4g/	o-	.	4cc\	O-	p
!	!	!LO:LB:g=original	!	!	!	!	!	!	!	!
=17	=17	=17	=17	=17	=17	=17	=17	=17	=17	=17
1C	-san-	(>2E\	-san-	.	(<2g/	-san-	.	1cc	-san-	.
!	!	!	!	!	!	!	!	!	!	!LO:HP:a
.	.	4F\	.	.	4a/	.	.	.	.	<
.	.	4G\)	.	.	4b-X/)	.	.	.	.	.
!	!	!	!	!	!LO:LB:g=original	!	!	!	!	!
=18	=18	=18	=18	=18	=18	=18	=18	=18	=18	=18
1C	-na	2F\	-na	.	2a^>/	-na	.	2cc\	-na	.
.	.	.	.	.	.	.	.	.	.	[
.	.	4A\	in	.	4cc\	in	.	4cc\	in	.
.	.	4A\	ex-	.	4cc\	ex-	.	4ff\	ex-	.
!	!	!	!	!	!	!	!	!LO:LB:g=original	!	!
=19	=19	=19	=19	=19	=19	=19	=19	=19	=19	=19
1C	osan-	1A-X	-cel-	.	(>2cc^>\	-cel-	.	1ff^>	-cel-	.
.	.	.	.	.	2bn\)	.	.	.	.	.
=20	=20	=20	=20	=20	=20	=20	=20	=20	=20	=20
1C;>	-na.	1G;>	-sis.	.	1cc;>	-sis.	.	1ee	-sis.	.
==	==	==	==	==	==	==	==	==	==	==
*-	*-	*-	*-	*-	*-	*-	*-	*-	*-	*-
!!!system-decoration: [(s1,s2,s3,s4)]
!!!RDF**kern: > = above
!!!RDF**kern: < = below
!!!EED: Mateusz Mrugas
!!!EST: 2021-02-06
!!!AIN: 2 empty 2 tenor
!!!ENC: Mateusz Solarz
!!!END: 2021-01-29
